packages/dnb-ui-lib/assets/icons/undo_medium.svg

<svg width="24" height="24" viewBox="0 0 24 24" fill="none" xmlns="http://www.w3.org/2000/svg">
<path d="M13.625 22C13.2108 22 12.875 21.6642 12.875 21.25C12.875 20.8358 13.2108 20.5 13.625 20.5V22ZM4.25 13.5L4.78033 14.0303C4.48744 14.3232 4.01256 14.3232 3.71967 14.0303L4.25 13.5ZM6.96967 9.71967C7.26256 9.42678 7.73744 9.42678 8.03033 9.71967C8.32322 10.0126 8.32322 10.4874 8.03033 10.7803L6.96967 9.71967ZM0.469669 10.7803C0.176777 10.4874 0.176777 10.0126 0.469669 9.71967C0.762564 9.42678 1.23744 9.42678 1.53033 9.71967L0.469669 10.7803ZM22.25 11.875C22.25 7.11154 18.3885 3.25 13.625 3.25V1.75C19.2169 1.75 23.75 6.28312 23.75 11.875H22.25ZM13.625 3.25C8.86154 3.25 5 7.11154 5 11.875H3.5C3.5 6.28312 8.03312 1.75 13.625 1.75V3.25ZM13.625 20.5C18.3885 20.5 22.25 16.6385 22.25 11.875H23.75C23.75 17.4669 19.2169 22 13.625 22V20.5ZM3.71967 12.9697L6.96967 9.71967L8.03033 10.7803L4.78033 14.0303L3.71967 12.9697ZM3.71967 14.0303L0.469669 10.7803L1.53033 9.71967L4.78033 12.9697L3.71967 14.0303ZM5 11.875V13.5H3.5V11.875H5Z" fill="black"/>
</svg>

<svg width="24" height="24" viewBox="0 0 24 24" fill="none" xmlns="http://www.w3.org/2000/svg"><path d="M13.625 22a.75.75 0 010-1.5V22zM4.25 13.5l.53.53a.75.75 0 01-1.06 0l.53-.53zm2.72-3.78a.75.75 0 011.06 1.06L6.97 9.72zm-6.5 1.06a.75.75 0 111.06-1.06L.47 10.78zm21.78 1.095a8.625 8.625 0 00-8.625-8.625v-1.5c5.592 0 10.125 4.533 10.125 10.125h-1.5zM13.625 3.25A8.625 8.625 0 005 11.875H3.5C3.5 6.283 8.033 1.75 13.625 1.75v1.5zm0 17.25a8.625 8.625 0 008.625-8.625h1.5C23.75 17.467 19.217 22 13.625 22v-1.5zM3.72 12.97l3.25-3.25 1.06 1.06-3.25 3.25-1.06-1.06zm0 1.06L.47 10.78l1.06-1.06 3.25 3.25-1.06 1.06zM5 11.875V13.5H3.5v-1.625H5z" fill="#000"/></svg>
